X: 7074
T: Chris Droney's Favourite
R: reel
M: 4/4
K: Adorian
eA ~A2 a2 bg|agef gedc|BG dGeGdG|BGBd gedg|
eA ~A2 a2 bg|agef gabg|a3b gedB|GBdB BAA2:|
a2 ea agbg|agef gedc|BGdG eGdG|BGBd gedg|
a2 ea agbg|agef gabg|~a3b gedB|GBdB BAA2:|

